src/app/print/link-list/images/android.svg

<?xml version="1.0" standalone="no"?>
<!DOCTYPE svg PUBLIC "-//W3C//DTD SVG 1.0//EN" "http://www.w3.org/TR/2001/REC-SVG-20010904/DTD/svg10.dtd">
<svg xmlns="http://www.w3.org/2000/svg" xmlns:xlink="http://www.w3.org/1999/xlink" id="body_1" width="51" height="38">

<g transform="matrix(0.29411766 0 0 0.29411766 -1.1029423 -98.82353)">
    <path d="M119.2 421.2C 134.5 412.80002 146.2 406.40002 147.2 405.90002C 150.4 404.2 153.7 399.7 147.2 396.2C 145.09999 395.1 133.8 388.90002 119.2 380.90002L119.2 380.90002L99.1 401.10004L119.2 421.2z" stroke="none" fill="#FFD400" fill-rule="nonzero" />
    <path d="M99.1 401.1L34.9 465.8C 36.4 466 38.100002 465.59998 40.100002 464.5C 44.300003 462.2 88.9 437.8 119.2 421.2L119.2 421.2L99.1 401.1z" stroke="none" fill="#FF3333" fill-rule="nonzero" />
    <path d="M99.1 401.1L119.2 380.9C 119.2 380.9 44.6 340.19998 40.1 337.8C 38.399998 336.8 36.5 336.5 34.8 336.8L34.8 336.8L99.1 401.1z" stroke="none" fill="#48FF48" fill-rule="nonzero" />
    <path d="M99.1 401.1L34.799995 336.8C 32.199997 337.4 29.999996 339.69998 29.999996 344.4C 29.999996 351.9 29.999996 451.9 29.999996 458.2C 29.999996 462.5 31.699997 465.6 34.899998 465.90002L34.899998 465.90002L99.1 401.1z" stroke="none" fill="#3BCCFF" fill-rule="nonzero" />
</g>
</svg>

<?xml version="1.0" encoding="utf-8"?>
<!-- Generator: Adobe Illustrator 19.0.0, SVG Export Plug-In . SVG Version: 6.00 Build 0)  -->
<svg version="1.1"
	 id="Layer_2" xmlns:cc="http://creativecommons.org/ns#" xmlns:dc="http://purl.org/dc/elements/1.1/" xmlns:inkscape="http://www.inkscape.org/namespaces/inkscape" xmlns:rdf="http://www.w3.org/1999/02/22-rdf-syntax-ns#" xmlns:sodipodi="http://sodipodi.sourceforge.net/DTD/sodipodi-0.dtd" xmlns:svg="http://www.w3.org/2000/svg" sodipodi:docname="Google_Play_logo.svg" inkscape:version="0.48.4 r9939"
	 xmlns="http://www.w3.org/2000/svg" xmlns:xlink="http://www.w3.org/1999/xlink" x="0px" y="0px" viewBox="30 336.7 120.9 129.2"
	 style="enable-background:new 30 336.7 120.9 129.2;" xml:space="preserve">
<style type="text/css">
	.st0{fill:#FFD400;}
	.st1{fill:#FF3333;}
	.st2{fill:#48FF48;}
	.st3{fill:#3BCCFF;}
</style>
<path id="path16" inkscape:connector-curvature="0" class="st0" d="M119.2,421.2c15.3-8.4,27-14.8,28-15.3c3.2-1.7,6.5-6.2,0-9.7
	c-2.1-1.1-13.4-7.3-28-15.3l-20.1,20.2L119.2,421.2z"/>
<path id="path23" inkscape:connector-curvature="0" class="st1" d="M99.1,401.1l-64.2,64.7c1.5,0.2,3.2-0.2,5.2-1.3
	c4.2-2.3,48.8-26.7,79.1-43.3L99.1,401.1L99.1,401.1z"/>
<path id="path30" inkscape:connector-curvature="0" class="st2" d="M99.1,401.1l20.1-20.2c0,0-74.6-40.7-79.1-43.1
	c-1.7-1-3.6-1.3-5.3-1L99.1,401.1z"/>
<path id="path37" inkscape:connector-curvature="0" class="st3" d="M99.1,401.1l-64.3-64.3c-2.6,0.6-4.8,2.9-4.8,7.6
	c0,7.5,0,107.5,0,113.8c0,4.3,1.7,7.4,4.9,7.7L99.1,401.1z"/>
</svg>
